X: 25727
T: Mary Grace
R: reel
M: 4/4
K: Adorian
cA~A2 EAAc|Bgdc BGGB|czAG EA~A2|cded cAAB|
cAAG ~E3z|Bdde BGGB|AEAB cGcd|(3efg dB cA~A2||
(3Bcd ef ~g3d|BGAG DGGA|(3Bcd ef (3ggg fg|(3efg dB cA~A2|
(3Bcd ef gaed|BG~G2 DG~G2|(3Bcd ef (3ggg fg|~a3f gfed||

